assets/svg/10x10/people.svg

<svg xmlns="http://www.w3.org/2000/svg" viewBox="0 -0.5 10 10" shape-rendering="crispEdges"><path stroke="#000" d="M2 0h2m2 0h2M2 1h2m2 0h2M1 3h4m2 0h2M0 4h6m1 0h3M0 5h1m1 0h2m1 0h1m1 0h1m1 0h1M2 6h2m3 0h1M1 7h4m2 0h2M0 8h2m2 0h2m2 0h2M0 9h2m2 0h2m2 0h2"/></svg>

<svg xmlns="http://www.w3.org/2000/svg" viewBox="0 -0.5 10 10" shape-rendering="crispEdges">
<metadata>Made with Pixels to Svg https://codepen.io/shshaw/pen/XbxvNj</metadata>
<path stroke="#ffffff" d="M0 0h2M4 0h2M8 0h2M0 1h2M4 1h2M8 1h2M0 2h10M0 3h1M5 3h2M9 3h1M6 4h1M1 5h1M4 5h1M6 5h1M8 5h1M0 6h2M4 6h3M8 6h2M0 7h1M5 7h2M9 7h1M2 8h2M6 8h2M2 9h2M6 9h2" />
<path stroke="#000000" d="M2 0h2M6 0h2M2 1h2M6 1h2M1 3h4M7 3h2M0 4h6M7 4h3M0 5h1M2 5h2M5 5h1M7 5h1M9 5h1M2 6h2M7 6h1M1 7h4M7 7h2M0 8h2M4 8h2M8 8h2M0 9h2M4 9h2M8 9h2" />
</svg>
